Numix-Circle/48x48/apps/lutris.svg

<?xml version="1.0" encoding="UTF-8" standalone="no"?>
<svg
   xmlns:dc="http://purl.org/dc/elements/1.1/"
   xmlns:cc="http://creativecommons.org/ns#"
   xmlns:rdf="http://www.w3.org/1999/02/22-rdf-syntax-ns#"
   xmlns:svg="http://www.w3.org/2000/svg"
   xmlns="http://www.w3.org/2000/svg"
   xmlns:xlink="http://www.w3.org/1999/xlink"
   xmlns:sodipodi="http://sodipodi.sourceforge.net/DTD/sodipodi-0.dtd"
   xmlns:inkscape="http://www.inkscape.org/namespaces/inkscape"
   viewBox="0 0 48 48"
   id="svg3360"
   version="1.1"
   inkscape:version="0.91 r13725"
   sodipodi:docname="lutris-final.svg">
  <metadata
     id="metadata3423">
    <rdf:RDF>
      <cc:Work
         rdf:about="">
        <dc:format>image/svg+xml</dc:format>
        <dc:type
           rdf:resource="http://purl.org/dc/dcmitype/StillImage" />
        <dc:title />
      </cc:Work>
    </rdf:RDF>
  </metadata>
  <sodipodi:namedview
     pagecolor="#ffffff"
     bordercolor="#666666"
     borderopacity="1"
     objecttolerance="10"
     gridtolerance="10"
     guidetolerance="10"
     inkscape:pageopacity="0"
     inkscape:pageshadow="2"
     inkscape:window-width="1920"
     inkscape:window-height="995"
     id="namedview3421"
     showgrid="true"
     inkscape:zoom="16"
     inkscape:cx="26.522744"
     inkscape:cy="32.295402"
     inkscape:window-x="0"
     inkscape:window-y="0"
     inkscape:window-maximized="1"
     inkscape:current-layer="layer5"
     showguides="false" />
  <defs
     id="defs3362">
    <linearGradient
       inkscape:collect="always"
       id="linearGradient5682">
      <stop
         style="stop-color:#e8a862;stop-opacity:1"
         offset="0"
         id="stop5684" />
      <stop
         style="stop-color:#e59e51;stop-opacity:1"
         offset="1"
         id="stop5686" />
    </linearGradient>
    <linearGradient
       id="linearGradient3764"
       x1="1"
       x2="47"
       gradientUnits="userSpaceOnUse"
       gradientTransform="matrix(0,-1,1,0,-1.5e-6,47.999998)">
      <stop
         stop-color="#575757"
         stop-opacity="1"
         id="stop3365" />
      <stop
         offset="1"
         stop-color="#616161"
         stop-opacity="1"
         id="stop3367" />
    </linearGradient>
    <clipPath
       id="clipPath-453839718">
      <g
         transform="translate(0,-1004.3622)"
         id="g3370">
        <path
           d="m -24 13 c 0 1.105 -0.672 2 -1.5 2 -0.828 0 -1.5 -0.895 -1.5 -2 0 -1.105 0.672 -2 1.5 -2 0.828 0 1.5 0.895 1.5 2 z"
           transform="matrix(15.333333,0,0,11.5,414.99999,878.8622)"
           fill="#1890d0"
           id="path3372" />
      </g>
    </clipPath>
    <clipPath
       id="clipPath-462896869">
      <g
         transform="translate(0,-1004.3622)"
         id="g3375">
        <path
           d="m -24 13 c 0 1.105 -0.672 2 -1.5 2 -0.828 0 -1.5 -0.895 -1.5 -2 0 -1.105 0.672 -2 1.5 -2 0.828 0 1.5 0.895 1.5 2 z"
           transform="matrix(15.333333,0,0,11.5,414.99999,878.8622)"
           fill="#1890d0"
           id="path3377" />
      </g>
    </clipPath>
    <linearGradient
       id="linearGradient3764-2"
       x1="1"
       x2="47"
       gradientUnits="userSpaceOnUse"
       gradientTransform="matrix(0,-1,1,0,-1.5e-6,47.999998)">
      <stop
         stop-color="#575757"
         stop-opacity="1"
         id="stop4439"
         style="stop-color:#d8972c;stop-opacity:1" />
      <stop
         offset="1"
         stop-color="#616161"
         stop-opacity="1"
         id="stop4441"
         style="stop-color:#dba03e;stop-opacity:1" />
    </linearGradient>
    <linearGradient
       inkscape:collect="always"
       xlink:href="#linearGradient5682"
       id="linearGradient5688"
       x1="24.000015"
       y1="1"
       x2="24.000017"
       y2="46.999973"
       gradientUnits="userSpaceOnUse" />
  </defs>
  <g
     inkscape:groupmode="layer"
     id="layer2"
     inkscape:label="Base"
     style="display:inline">
    <g
       id="g4453">
      <path
         style="opacity:0.05"
         inkscape:connector-curvature="0"
         d="m 36.31,5 c 5.859,4.062 9.688,10.831 9.688,18.5 0,12.426 -10.07,22.5 -22.5,22.5 -7.669,0 -14.438,-3.828 -18.5,-9.688 1.037,1.822 2.306,3.499 3.781,4.969 4.085,3.712 9.514,5.969 15.469,5.969 12.703,0 23,-10.298 23,-23 0,-5.954 -2.256,-11.384 -5.969,-15.469 C 39.81,7.306 38.132,6.037 36.31,5 Z m 4.969,3.781 c 3.854,4.113 6.219,9.637 6.219,15.719 0,12.703 -10.297,23 -23,23 -6.081,0 -11.606,-2.364 -15.719,-6.219 4.16,4.144 9.883,6.719 16.219,6.719 12.703,0 23,-10.298 23,-23 0,-6.335 -2.575,-12.06 -6.719,-16.219 z"
         id="path4455" />
      <path
         style="opacity:0.1"
         inkscape:connector-curvature="0"
         d="m 41.28,8.781 c 3.712,4.085 5.969,9.514 5.969,15.469 0,12.703 -10.297,23 -23,23 -5.954,0 -11.384,-2.256 -15.469,-5.969 4.113,3.854 9.637,6.219 15.719,6.219 12.703,0 23,-10.298 23,-23 0,-6.081 -2.364,-11.606 -6.219,-15.719 z"
         id="path4457" />
      <path
         style="opacity:0.2"
         inkscape:connector-curvature="0"
         d="M 31.25,2.375 C 39.865,5.529 46,13.792 46,23.505 c 0,12.426 -10.07,22.5 -22.5,22.5 -9.708,0 -17.971,-6.135 -21.12,-14.75 a 23,23 0 0 0 44.875,-7 23,23 0 0 0 -16,-21.875 z"
         id="path4459" />
    </g>
    <g
       id="g4465" />
    <g
       style="display:inline"
       id="g5586">
      <g
         style="fill:url(#linearGradient5688);fill-opacity:1"
         id="g4461">
        <path
           id="path4463"
           d="M 24,1 C 36.703,1 47,11.297 47,24 47,36.703 36.703,47 24,47 11.297,47 1,36.703 1,24 1,11.297 11.297,1 24,1 Z"
           inkscape:connector-curvature="0"
           style="fill:url(#linearGradient5688);fill-opacity:1;fill-rule:evenodd" />
      </g>
    </g>
    <g
       id="g4491">
      <path
         style="opacity:0.1"
         inkscape:connector-curvature="0"
         d="m 40.03,7.531 c 3.712,4.084 5.969,9.514 5.969,15.469 0,12.703 -10.297,23 -23,23 C 17.045,46 11.615,43.744 7.53,40.031 11.708,44.322 17.54,47 23.999,47 c 12.703,0 23,-10.298 23,-23 0,-6.462 -2.677,-12.291 -6.969,-16.469 z"
         id="path4493" />
    </g>
  </g>
  <g
     inkscape:groupmode="layer"
     id="layer5"
     inkscape:label="Symbol"
     style="display:inline">
    <path
       style="display:inline;opacity:0.1;fill:#000000;fill-opacity:1;stroke:none;stroke-opacity:1"
       d="m 25.210913,12.000389 a 0.75677725,2.4018231 89.224244 0 0 -0.240234,0.002 0.75677725,2.4018231 89.224244 0 0 -2.363276,0.794922 0.75677725,2.4018231 89.224244 0 0 0.0078,0.05469 l 0.771483,12.267579 c -0.259211,0.05862 -0.509254,0.126308 -0.734373,0.21289 l -8.611311,3.3125 c -0.59781,0.229921 -0.928814,0.515635 -1.009764,0.802735 l -0.03125,0 0,3.857422 0.02539,0 c -0.08002,0.331355 0.178032,0.660578 0.806638,0.902343 l 9.029279,3.472657 c 1.18531,0.455876 3.185251,0.420319 4.486319,-0.08008 l 8.611311,-3.3125 c 0.768096,-0.295413 1.104001,-0.683682 1.015623,-1.046875 l 0.02344,0 0,-3.849609 -0.02539,0 c -0.06676,-0.247727 -0.32664,-0.482157 -0.804685,-0.666016 l -9.029279,-3.472656 c -0.164303,-0.06319 -0.345475,-0.115788 -0.537109,-0.160156 l 0.802733,-12.320313 -0.002,0 a 0.75677725,2.4018231 89.224244 0 0 0.0078,-0.05469 l -0.002,0 a 0.75677725,2.4018231 89.224244 0 0 -2.197145,-0.716793 z"
       id="rect5500-8"
       inkscape:connector-curvature="0" />
    <g
       style="display:inline"
       id="g4169-0"
       transform="matrix(1,0,0,0.99853371,-14.05631,-8.1359453)" />
    <g
       style="display:inline"
       id="g4181-2"
       transform="matrix(1,0,0,0.99853371,-13.672157,-8.1545763)" />
    <g
       style="display:inline"
       id="g5239-2"
       transform="matrix(1,0,0,0.99853371,-13.669591,-8.0109452)" />
    <path
       style="display:inline;opacity:1;fill:#4d4d4d;fill-opacity:1;stroke:none;stroke-opacity:1"
       d="M 23.939453 27.771484 C 23.128237 27.78601 22.30288 27.919723 21.652344 28.169922 L 16.882812 30.003906 L 16.882812 28.447266 L 12 28.447266 L 12 32.304688 L 12.025391 32.304688 C 11.94537 32.636043 12.203423 32.965266 12.832031 33.207031 L 21.861328 36.679688 C 23.04664 37.135564 25.046585 37.100007 26.347656 36.599609 L 34.958984 33.287109 C 35.727081 32.991696 36.062987 32.603427 35.974609 32.240234 L 35.998047 32.240234 L 35.998047 28.390625 L 31.347656 28.390625 L 31.347656 30.09375 L 26.138672 28.089844 C 25.546016 27.861906 24.750669 27.756959 23.939453 27.771484 z "
       id="rect5500" />
    <rect
       style="display:inline;opacity:1;fill:#666666;fill-opacity:1;stroke:none;stroke-opacity:1"
       id="rect5500-1"
       width="14.258535"
       height="14.258535"
       x="45.490219"
       y="19.776369"
       rx="2.2923384"
       ry="2.5162122"
       transform="matrix(0.93334899,0.35897028,-0.93334899,0.35897028,0,0)" />
    <g
       style="display:inline"
       id="g5593"
       transform="matrix(1,0,0,0.99997144,0,0.11719163)">
      <path
         d="M 28,28.125 A 4,1.875 0 0 1 24.001588,30 a 4,1.875 0 0 1 -4.001587,-1.873511 4,1.875 0 0 1 3.995234,-1.876488 4,1.875 0 0 1 4.00476,1.872021"
         sodipodi:open="true"
         sodipodi:end="6.2815971"
         sodipodi:start="0"
         sodipodi:ry="1.875"
         sodipodi:rx="4"
         sodipodi:cy="28.125"
         sodipodi:cx="24"
         sodipodi:type="arc"
         id="path5562"
         style="opacity:1;fill:#4d4d4d;fill-opacity:1;stroke:none;stroke-opacity:1" />
      <path
         d="M 27.5,27.639515 A 3.5,1.6104854 0 0 1 24.00139,29.25 a 3.5,1.6104854 0 0 1 -3.501389,-1.609206 3.5,1.6104854 0 0 1 3.49583,-1.611763 3.5,1.6104854 0 0 1 3.504165,1.607926"
         sodipodi:open="true"
         sodipodi:end="6.2815971"
         sodipodi:start="0"
         sodipodi:ry="1.6104854"
         sodipodi:rx="3.5"
         sodipodi:cy="27.639515"
         sodipodi:cx="24"
         sodipodi:type="arc"
         id="path5569"
         style="opacity:1;fill:#808080;fill-opacity:1;stroke:none;stroke-opacity:1" />
      <path
         d="m 27,27.25 a 3,1.25 0 0 1 -2.998809,1.25 3,1.25 0 0 1 -3.00119,-1.249007 3,1.25 0 0 1 2.996426,-1.250992 3,1.25 0 0 1 3.003569,1.248014"
         sodipodi:open="true"
         sodipodi:end="6.2815971"
         sodipodi:start="0"
         sodipodi:ry="1.25"
         sodipodi:rx="3"
         sodipodi:cy="27.25"
         sodipodi:cx="24"
         sodipodi:type="arc"
         id="path5579"
         style="opacity:1;fill:#b3b3b3;fill-opacity:1;stroke:none;stroke-opacity:1" />
    </g>
    <path
       style="display:inline;opacity:1;fill:#d05c5c;fill-opacity:1"
       d="M 32.824219 27.726562 A 0.85073317 2.0094168 89.832889 0 0 31.330078 28.042969 L 30.878906 28.042969 L 30.878906 28.59375 A 0.85073317 2.0094168 89.832889 0 0 30.878906 28.609375 A 0.85073317 2.0094168 89.832889 0 0 32.947266 29.427734 A 0.85073317 2.0094168 89.832889 0 0 34.892578 28.583984 A 0.85073317 2.0094168 89.832889 0 0 34.894531 28.546875 L 34.894531 28.544922 A 0.85073317 2.0094168 89.832889 0 0 34.892578 28.533203 L 34.892578 28.033203 L 34.4375 28.033203 A 0.85073317 2.0094168 89.832889 0 0 32.824219 27.726562 z "
       id="path5413-7-3" />
    <path
       style="display:inline;opacity:1;fill:#d56b6b;fill-opacity:1"
       id="path5413-7"
       sodipodi:type="arc"
       sodipodi:cx="30.860186"
       sodipodi:cy="28.584225"
       sodipodi:rx="2.008728"
       sodipodi:ry="0.85235822"
       sodipodi:start="0"
       sodipodi:end="6.2815971"
       sodipodi:open="true"
       d="m 32.868914,28.584225 a 2.008728,0.85235822 0 0 1 -2.007931,0.852358 2.008728,0.85235822 0 0 1 -2.009525,-0.851681 2.008728,0.85235822 0 0 1 2.006335,-0.853035 2.008728,0.85235822 0 0 1 2.011118,0.851004"
       transform="matrix(0.99988515,-0.01515543,0.07103729,0.99747366,0,0)" />
    <path
       style="display:inline;opacity:1;fill:#4d4d4d;fill-opacity:1"
       d="M 24.328125 11.306641 L 21.611328 11.789062 L 22.587891 27.332031 A 1.400149 0.42482123 0 0 0 22.585938 27.347656 A 1.400149 0.42482123 0 0 0 23.986328 27.773438 A 1.400149 0.42482123 0 0 0 25.384766 27.347656 L 25.388672 27.347656 L 26.404297 11.771484 L 24.349609 11.654297 L 24.328125 11.306641 z "
       id="rect5358" />
    <path
       style="display:inline;fill:#666666;fill-opacity:1"
       id="path5381"
       sodipodi:type="arc"
       sodipodi:cx="23.473883"
       sodipodi:cy="12.158549"
       sodipodi:rx="2.401727"
       sodipodi:ry="0.75709766"
       sodipodi:start="0"
       sodipodi:end="6.2815971"
       sodipodi:open="true"
       d="m 25.87561,12.158549 a 2.401727,0.75709766 0 0 1 -2.400774,0.757098 2.401727,0.75709766 0 0 1 -2.40268,-0.756496 2.401727,0.75709766 0 0 1 2.398866,-0.757699 2.401727,0.75709766 0 0 1 2.404585,0.755895"
       transform="matrix(0.99986249,-0.01658313,0.04418127,0.99902353,0,0)" />
    <g
       transform="translate(-34.749999,-12.3125)"
       style="display:inline"
       id="g5787-2" />
    <g
       style="display:inline"
       id="g5593-4"
       transform="matrix(1,0,0,0.99997144,-34.749999,-12.195309)" />
    <g
       style="display:inline"
       id="g5630-6"
       transform="matrix(1,0,0,0.99997144,-35.031249,-12.33593)" />
  </g>
</svg>

<svg xmlns="http://www.w3.org/2000/svg" viewBox="0 0 48 48">
 <defs>
  <linearGradient id="linearGradient5688" y1="1" x2="0" y2="47" gradientUnits="userSpaceOnUse">
   <stop style="stop-color:#e8a862;stop-opacity:1"/>
   <stop offset="1" style="stop-color:#e59e51;stop-opacity:1"/>
  </linearGradient>
 </defs>
 <g style="display:inline">
  <g>
   <path d="m 36.31,5 c 5.859,4.062 9.688,10.831 9.688,18.5 0,12.426 -10.07,22.5 -22.5,22.5 -7.669,0 -14.438,-3.828 -18.5,-9.688 1.037,1.822 2.306,3.499 3.781,4.969 4.085,3.712 9.514,5.969 15.469,5.969 12.703,0 23,-10.298 23,-23 0,-5.954 -2.256,-11.384 -5.969,-15.469 C 39.81,7.306 38.132,6.037 36.31,5 Z m 4.969,3.781 c 3.854,4.113 6.219,9.637 6.219,15.719 0,12.703 -10.297,23 -23,23 -6.081,0 -11.606,-2.364 -15.719,-6.219 4.16,4.144 9.883,6.719 16.219,6.719 12.703,0 23,-10.298 23,-23 0,-6.335 -2.575,-12.06 -6.719,-16.219 z" style="opacity:0.05"/>
   <path d="m 41.28 8.781 c 3.712 4.085 5.969 9.514 5.969 15.469 0 12.703 -10.297 23 -23 23 -5.954 0 -11.384 -2.256 -15.469 -5.969 4.113 3.854 9.637 6.219 15.719 6.219 12.703 0 23 -10.298 23 -23 0 -6.081 -2.364 -11.606 -6.219 -15.719 z" style="opacity:0.1"/>
   <path d="M 31.25,2.375 C 39.865,5.529 46,13.792 46,23.505 c 0,12.426 -10.07,22.5 -22.5,22.5 -9.708,0 -17.971,-6.135 -21.12,-14.75 a 23,23 0 0 0 44.875,-7 23,23 0 0 0 -16,-21.875 z" style="opacity:0.2"/>
  </g>
  <g>
   <g style="fill:url(#linearGradient5688);fill-opacity:1">
    <path d="M 24,1 C 36.703,1 47,11.297 47,24 47,36.703 36.703,47 24,47 11.297,47 1,36.703 1,24 1,11.297 11.297,1 24,1 Z" style="fill-rule:evenodd"/>
   </g>
  </g>
  <g>
   <path d="m 40.03,7.531 c 3.712,4.084 5.969,9.514 5.969,15.469 0,12.703 -10.297,23 -23,23 C 17.045,46 11.615,43.744 7.53,40.031 11.708,44.322 17.54,47 23.999,47 c 12.703,0 23,-10.298 23,-23 0,-6.462 -2.677,-12.291 -6.969,-16.469 z" style="opacity:0.1"/>
  </g>
 </g>
 <g style="display:inline">
  <path d="m 25.21 12 c -0.08 0 -0.16 0 -0.24 0.002 -1.323 0.023 -2.38 0.378 -2.363 0.795 0 0.018 0.003 0.037 0.008 0.055 l 0.771 12.268 c -0.259 0.059 -0.509 0.126 -0.734 0.213 l -8.611 3.313 c -0.598 0.23 -0.929 0.516 -1.01 0.803 l -0.031 0 0 3.857 0.025 0 c -0.08 0.331 0.178 0.661 0.807 0.902 l 9.03 3.473 c 1.185 0.456 3.185 0.42 4.486 -0.08 l 8.611 -3.313 c 0.768 -0.295 1.041 -0.689 1.041 -1.047 c 0.005 -1.339 0.028 -2.741 0 -3.85 -0.067 -0.248 -0.354 -0.482 -0.832 -0.666 l -9.03 -3.473 c -0.164 -0.063 -0.345 -0.116 -0.537 -0.16 l 0.803 -12.32 -0.002 0 c 0.005 -0.018 0.007 -0.036 0.008 -0.055 l -0.002 0 c -0.017 -0.389 -0.967 -0.699 -2.197 -0.717 z" style="fill:#000;opacity:0.1;fill-opacity:1;stroke:none"/>
  <path d="m 12 28.447 0 3.857 0.025 0 c -0.08 0.331 0.178 0.661 0.807 0.902 l 9.03 3.473 c 1.185 0.456 3.185 0.42 4.486 -0.08 l 8.611 -3.313 c 0.768 -0.295 1.041 -0.684 1.041 -1.047 0 -1.24 -0.002 -2.567 -0.002 -3.85 c 0 0 -16.47 0.057 -23.998 0.057 z" style="fill:#4d4d4d;opacity:1;fill-opacity:1;stroke:none"/>
  <rect width="14.259" height="14.259" x="45.49" y="19.776" rx="2.292" ry="2.516" transform="matrix(0.93334899,0.35897028,-0.93334899,0.35897028,0,0)" style="fill:#666;opacity:1;fill-opacity:1;stroke:none"/>
  <g transform="matrix(1,0,0,0.99997144,0,0.11719163)">
   <path d="M 28 28.13 A 4 1.875 0 0 1 24 30 a 4 1.875 0 0 1 -4 -1.874 4 1.875 0 0 1 3.995 -1.876 4 1.875 0 0 1 4 1.872" style="fill:#4d4d4d;opacity:1;fill-opacity:1;stroke:none"/>
   <path d="M 27.5 27.64 A 3.5 1.61 0 0 1 24 29.25 a 3.5 1.61 0 0 1 -3.501 -1.609 3.5 1.61 0 0 1 3.496 -1.612 3.5 1.61 0 0 1 3.504 1.608" style="fill:#808080;opacity:1;fill-opacity:1;stroke:none"/>
   <path d="m 27 27.25 a 3 1.25 0 0 1 -2.999 1.25 3 1.25 0 0 1 -3 -1.249 3 1.25 0 0 1 2.996 -1.251 3 1.25 0 0 1 3 1.248" style="fill:#b3b3b3;opacity:1;fill-opacity:1;stroke:none"/>
  </g>
  <path d="m 30.879 28.04 0 0.551 c 0 0.005 0 0.0001 0 0.016 0.035 0.469 0.961 0.835 2.068 0.818 1.074 -0.017 1.931 -0.389 1.945 -0.844 0 -0.012 0.002 -0.025 0.002 -0.037 l 0 -0.002 -0.002 -0.012 0 -0.5 z" style="fill:#d05c5c;opacity:1;fill-opacity:1"/>
  <path d="m 32.869 28.584 a 2.01 0.852 0 0 1 -2.01 0.852 2.01 0.852 0 0 1 -2.01 -0.852 2.01 0.852 0 0 1 2.01 -0.853 2.01 0.852 0 0 1 2.01 0.851" transform="matrix(0.99988515,-0.01515543,0.07103729,0.99747366,0,0)" style="fill:#d56b6b;opacity:1;fill-opacity:1"/>
  <path d="m 21.611 11.789 0.977 15.543 c 0 0.005 -0.002 0.0001 -0.002 0.016 -0.002 0.235 0.626 0.426 1.4 0.426 0.774 0 1.4 -0.191 1.398 -0.426 l 0.004 0 1.016 -15.576 z" style="fill:#4d4d4d;opacity:1;fill-opacity:1"/>
  <path d="m 25.876 12.159 a 2.402 0.757 0 0 1 -2.401 0.757 2.402 0.757 0 0 1 -2.403 -0.756 2.402 0.757 0 0 1 2.399 -0.758 2.402 0.757 0 0 1 2.405 0.756" transform="matrix(0.99986249,-0.01658313,0.04418127,0.99902353,0,0)" style="fill:#666;fill-opacity:1"/>
 </g>
</svg>
